X: 5388
T: Bucks Of Oranmore, The
R: reel
M: 4/4
K: Dmajor
|:A2FA A2dB|A2FA BEE2|1 A2FA A2Bd|egfd edBd:|2 DEFG AFAB|defd edBd||
|:ADFD A2dB|ADFD BEE2|1 ADFD A2Bd|egfd edBd:|2 DEFG AFAB|defd efge||
|:a2fd edef|a2fd edB2|1 a2fd edef|gefd edB2:|2 faaf bfaf|gefd edBd||
|:f2df e2de|f2df edBd|1 f2df e2de|gefd edBd:|2 faaf bfaf|gefd edBd||
|:Adfd edfd|Adfd ed1Bd|Adfd edfd|gefd edBd:|2 B2|faaf bfaf|gefd edBd||

